public/images/aymericdev.svg

<svg width="190" height="47" viewBox="0 0 190 47" fill="none" xmlns="http://www.w3.org/2000/svg">
<path d="M8.30657 37.576C6.35457 37.576 4.77057 37.192 3.55457 36.424C2.33857 35.656 1.44257 34.616 0.86657 33.304C0.32257 31.992 0.0505696 30.536 0.0505696 28.936C0.0505696 26.888 0.38657 24.84 1.05857 22.792C1.76257 20.744 2.83457 18.888 4.27457 17.224C5.71457 15.528 7.57057 14.168 9.84257 13.144C12.1146 12.12 14.8186 11.608 17.9546 11.608C18.4026 11.608 18.9786 11.64 19.6826 11.704C20.3866 11.768 21.0906 11.88 21.7946 12.04C22.5306 12.2 23.1066 12.424 23.5226 12.712L19.7306 28.12C19.5386 28.92 19.3786 29.656 19.2506 30.328C19.1226 31 19.0586 31.736 19.0586 32.536C19.0586 33.176 19.1226 33.832 19.2506 34.504C19.3786 35.176 19.5706 35.928 19.8266 36.76L16.4666 37.24C16.3066 36.856 16.1626 36.472 16.0346 36.088C15.9386 35.672 15.8266 35.192 15.6986 34.648C14.9946 35.32 14.0026 35.976 12.7226 36.616C11.4426 37.256 9.97057 37.576 8.30657 37.576ZM8.78657 34.504C10.2266 34.504 11.5386 34.2 12.7226 33.592C13.9386 32.952 14.9146 32.232 15.6506 31.432C15.6826 30.888 15.7466 30.248 15.8426 29.512C15.9386 28.744 16.0506 28.056 16.1786 27.448L19.3946 15.016C19.2666 14.984 18.9306 14.936 18.3866 14.872C17.8746 14.776 17.4906 14.728 17.2346 14.728C15.2186 14.728 13.3946 15.112 11.7626 15.88C10.1306 16.616 8.72257 17.624 7.53857 18.904C6.35457 20.184 5.44257 21.656 4.80257 23.32C4.16257 24.952 3.84257 26.664 3.84257 28.456C3.84257 29.48 3.97057 30.456 4.22657 31.384C4.51457 32.312 5.01057 33.064 5.71457 33.64C6.45057 34.216 7.47457 34.504 8.78657 34.504ZM23.8859 46.024C23.0859 46.024 22.3179 45.896 21.5819 45.64C20.8459 45.416 20.3179 45.192 19.9979 44.968L21.3899 41.8C21.6459 42.088 22.0459 42.312 22.5899 42.472C23.1659 42.664 23.7579 42.76 24.3659 42.76C26.4139 42.76 28.0939 42.36 29.4059 41.56C30.7499 40.792 32.0619 39.464 33.3419 37.576C32.0619 33.544 30.9419 29.352 29.9819 25C29.0219 20.616 28.4619 16.328 28.3019 12.136H32.1419C32.2059 14.088 32.4139 16.312 32.7659 18.808C33.1179 21.272 33.5659 23.816 34.1099 26.44C34.6859 29.064 35.2939 31.592 35.9339 34.024C37.2779 31.912 38.4779 29.72 39.5339 27.448C40.6219 25.176 41.5659 23.016 42.3659 20.968C43.1659 18.92 43.8059 17.112 44.2859 15.544C44.7979 13.976 45.1179 12.84 45.2459 12.136H49.1819C48.9899 12.968 48.6059 14.232 48.0299 15.928C47.4859 17.624 46.7659 19.576 45.8699 21.784C44.9739 23.96 43.9339 26.216 42.7499 28.552C41.5979 30.888 40.3179 33.096 38.9099 35.176C37.8539 36.744 36.8139 38.184 35.7899 39.496C34.7659 40.84 33.6779 41.992 32.5259 42.952C31.4059 43.944 30.1419 44.696 28.7339 45.208C27.3259 45.752 25.7099 46.024 23.8859 46.024ZM46.8573 37L52.7133 12.712C53.7373 12.328 54.7613 12.04 55.7853 11.848C56.8093 11.624 57.7533 11.512 58.6173 11.512C59.6413 11.512 60.5533 11.672 61.3533 11.992C62.1533 12.28 62.7613 12.728 63.1773 13.336C64.1053 12.696 64.9853 12.232 65.8173 11.944C66.6493 11.656 67.4813 11.512 68.3133 11.512C69.5933 11.512 70.6813 11.928 71.5773 12.76C72.5053 13.592 72.9693 14.808 72.9693 16.408C72.9693 16.792 72.9213 17.208 72.8253 17.656C72.7613 18.104 72.6653 18.584 72.5373 19.096L68.2653 37H64.6653L68.9373 19.096C69.0013 18.808 69.0493 18.536 69.0813 18.28C69.1133 17.992 69.1293 17.736 69.1293 17.512C69.1293 16.648 68.9213 15.992 68.5053 15.544C68.1213 15.064 67.6093 14.824 66.9693 14.824C66.5533 14.824 66.0893 14.936 65.5773 15.16C65.0653 15.384 64.5373 15.768 63.9933 16.312C63.9933 17.176 63.8813 18.104 63.6573 19.096L61.6893 27.4H58.0413L60.0093 19.144C60.1373 18.728 60.2173 18.36 60.2493 18.04C60.3133 17.688 60.3453 17.368 60.3453 17.08C60.3453 16.344 60.1533 15.784 59.7693 15.4C59.4173 15.016 58.8573 14.824 58.0893 14.824C57.7693 14.824 57.4013 14.872 56.9853 14.968C56.6013 15.064 56.1533 15.192 55.6413 15.352L50.4573 37H46.8573ZM83.2207 37.624C81.0127 37.624 79.1727 37.192 77.7007 36.328C76.2287 35.432 75.1247 34.296 74.3887 32.92C73.6527 31.544 73.2847 30.12 73.2847 28.648C73.2847 26.344 73.6207 24.168 74.2927 22.12C74.9967 20.04 76.0047 18.216 77.3167 16.648C78.6607 15.048 80.2607 13.8 82.1167 12.904C84.0047 12.008 86.1167 11.56 88.4527 11.56C90.3727 11.56 91.8927 11.848 93.0127 12.424C94.1647 13 94.9807 13.752 95.4607 14.68C95.9407 15.576 96.1807 16.536 96.1807 17.56C96.1807 19.448 95.7807 20.984 94.9807 22.168C94.2127 23.352 93.1567 24.264 91.8127 24.904C90.4687 25.544 88.9647 26.008 87.3007 26.296C85.6367 26.584 83.9087 26.776 82.1167 26.872C80.3247 26.936 78.5967 27 76.9327 27.064C76.7407 28.76 76.9647 30.136 77.6047 31.192C78.2767 32.248 79.2207 33.032 80.4367 33.544C81.6847 34.024 83.0607 34.264 84.5647 34.264C85.6207 34.264 86.6927 34.152 87.7807 33.928C88.9007 33.704 89.8767 33.464 90.7087 33.208C91.5407 32.92 92.0687 32.68 92.2927 32.488L92.6767 35.848C92.0687 36.168 90.9807 36.552 89.4127 37C87.8447 37.416 85.7807 37.624 83.2207 37.624ZM77.6047 24.04C79.7487 23.976 81.7167 23.88 83.5087 23.752C85.3007 23.592 86.8527 23.304 88.1647 22.888C89.5087 22.472 90.5487 21.864 91.2847 21.064C92.0207 20.232 92.3887 19.112 92.3887 17.704C92.3887 17.352 92.2767 16.952 92.0527 16.504C91.8287 16.056 91.4127 15.656 90.8047 15.304C90.1967 14.952 89.2847 14.776 88.0687 14.776C86.2767 14.776 84.6767 15.24 83.2687 16.168C81.8607 17.096 80.6767 18.264 79.7167 19.672C78.7567 21.08 78.0527 22.536 77.6047 24.04ZM99.0881 37L104.752 13.336C106.8 12.696 108.768 12.248 110.656 11.992C112.544 11.704 114.448 11.56 116.368 11.56C117.232 11.56 118.016 11.592 118.72 11.656C119.456 11.72 120.496 11.896 121.84 12.184L120.4 15.4C119.6 15.208 118.928 15.064 118.384 14.968C117.84 14.872 117.328 14.824 116.848 14.824C116.4 14.792 115.84 14.776 115.168 14.776C114.016 14.776 112.832 14.84 111.616 14.968C110.4 15.096 109.168 15.32 107.92 15.64L102.832 37H99.0881ZM137.083 37C135.291 37 133.883 36.696 132.859 36.088C131.835 35.48 131.115 34.664 130.699 33.64C130.283 32.616 130.075 31.496 130.075 30.28C130.075 29.48 130.139 28.68 130.267 27.88C130.427 27.048 130.603 26.216 130.795 25.384L133.243 15.352H125.995L126.715 12.136H137.707L134.587 25.576C134.363 26.408 134.171 27.208 134.011 27.976C133.883 28.744 133.819 29.464 133.819 30.136C133.819 31.16 134.091 32.04 134.635 32.776C135.211 33.512 136.299 33.88 137.899 33.88C138.507 33.88 139.067 33.832 139.579 33.736C140.091 33.64 140.507 33.576 140.827 33.544L140.443 36.76C140.507 36.696 140.283 36.728 139.771 36.856C139.291 36.952 138.395 37 137.083 37ZM136.267 7.096C135.371 7.096 134.635 6.824 134.059 6.28C133.483 5.736 133.195 5.016 133.195 4.12C133.195 2.904 133.579 1.96 134.347 1.288C135.115 0.615998 135.947 0.279998 136.843 0.279998C137.707 0.279998 138.427 0.551998 139.003 1.096C139.611 1.608 139.915 2.36 139.915 3.352C139.915 4.472 139.515 5.384 138.715 6.088C137.947 6.76 137.131 7.096 136.267 7.096ZM157.751 37.624C155.383 37.624 153.367 37.24 151.703 36.472C150.039 35.704 148.775 34.616 147.911 33.208C147.047 31.8 146.615 30.168 146.615 28.312C146.615 26.168 146.967 24.104 147.671 22.12C148.375 20.104 149.415 18.296 150.791 16.696C152.199 15.096 153.943 13.832 156.023 12.904C158.103 11.976 160.503 11.512 163.223 11.512C164.535 11.512 165.751 11.592 166.871 11.752C167.991 11.912 169.031 12.216 169.991 12.664L168.599 15.928C167.991 15.608 167.255 15.32 166.391 15.064C165.559 14.776 164.343 14.632 162.743 14.632C160.791 14.632 159.047 15.016 157.511 15.784C155.975 16.552 154.663 17.576 153.575 18.856C152.519 20.136 151.719 21.56 151.175 23.128C150.631 24.664 150.359 26.232 150.359 27.832C150.359 28.952 150.583 30.024 151.031 31.048C151.479 32.04 152.279 32.84 153.431 33.448C154.583 34.056 156.199 34.36 158.279 34.36C159.911 34.36 161.431 34.152 162.839 33.736C164.247 33.288 165.191 32.888 165.671 32.536L165.959 35.848C165.575 36.072 164.967 36.328 164.135 36.616C163.335 36.904 162.375 37.144 161.255 37.336C160.167 37.528 158.999 37.624 157.751 37.624ZM172.297 37.156C171.769 37.156 171.335 37.0563 170.997 36.857C170.668 36.649 170.425 36.3717 170.269 36.025C170.113 35.6697 170.035 35.2667 170.035 34.816C170.035 34.2527 170.131 33.6937 170.321 33.139C170.512 32.5843 170.798 32.0817 171.179 31.631C171.569 31.1717 172.063 30.8033 172.661 30.526C173.268 30.2487 173.979 30.11 174.793 30.11C174.897 30.11 175.006 30.1143 175.118 30.123C175.24 30.123 175.344 30.123 175.43 30.123L176.171 27.094L177.237 26.912L175.365 34.595C175.313 34.8117 175.27 35.011 175.235 35.193C175.201 35.375 175.183 35.5743 175.183 35.791C175.183 35.9643 175.201 36.142 175.235 36.324C175.27 36.506 175.322 36.7097 175.391 36.935L174.481 37.065C174.438 36.9697 174.399 36.87 174.364 36.766C174.338 36.662 174.308 36.5277 174.273 36.363C174.083 36.545 173.827 36.7227 173.506 36.896C173.186 37.0693 172.783 37.156 172.297 37.156ZM172.401 36.324C172.791 36.324 173.147 36.2417 173.467 36.077C173.797 35.9037 174.061 35.7087 174.26 35.492C174.269 35.3447 174.286 35.1713 174.312 34.972C174.338 34.764 174.369 34.5777 174.403 34.413L175.274 31.046C175.24 31.0373 175.149 31.0243 175.001 31.007C174.854 30.981 174.746 30.968 174.676 30.968C174.139 30.968 173.649 31.072 173.207 31.28C172.765 31.4793 172.384 31.7523 172.063 32.099C171.751 32.4457 171.509 32.8443 171.335 33.295C171.171 33.737 171.088 34.2007 171.088 34.686C171.088 34.9633 171.123 35.2277 171.192 35.479C171.262 35.7303 171.392 35.934 171.582 36.09C171.773 36.246 172.046 36.324 172.401 36.324ZM179.143 37.169C178.545 37.169 178.046 37.052 177.648 36.818C177.249 36.5753 176.95 36.2677 176.751 35.895C176.551 35.5223 176.452 35.1367 176.452 34.738C176.452 34.114 176.543 33.5247 176.725 32.97C176.915 32.4067 177.188 31.9127 177.544 31.488C177.908 31.0547 178.341 30.7167 178.844 30.474C179.355 30.2313 179.927 30.11 180.56 30.11C181.08 30.11 181.491 30.188 181.795 30.344C182.107 30.5 182.328 30.7037 182.458 30.955C182.588 31.1977 182.653 31.4577 182.653 31.735C182.653 32.2463 182.544 32.6623 182.328 32.983C182.12 33.3037 181.834 33.5507 181.47 33.724C181.106 33.8973 180.698 34.023 180.248 34.101C179.797 34.179 179.329 34.231 178.844 34.257C178.358 34.2743 177.89 34.2917 177.44 34.309C177.388 34.7683 177.448 35.141 177.622 35.427C177.804 35.713 178.059 35.9253 178.389 36.064C178.727 36.194 179.099 36.259 179.507 36.259C179.793 36.259 180.083 36.2287 180.378 36.168C180.681 36.1073 180.945 36.0423 181.171 35.973C181.396 35.895 181.539 35.83 181.6 35.778L181.704 36.688C181.539 36.7747 181.244 36.8787 180.82 37C180.395 37.1127 179.836 37.169 179.143 37.169ZM177.622 33.49C178.202 33.4727 178.735 33.4467 179.221 33.412C179.706 33.3687 180.126 33.2907 180.482 33.178C180.846 33.0653 181.127 32.9007 181.327 32.684C181.526 32.4587 181.626 32.1553 181.626 31.774C181.626 31.6787 181.595 31.5703 181.535 31.449C181.474 31.3277 181.361 31.2193 181.197 31.124C181.032 31.0287 180.785 30.981 180.456 30.981C179.97 30.981 179.537 31.1067 179.156 31.358C178.774 31.6093 178.454 31.9257 178.194 32.307C177.934 32.6883 177.743 33.0827 177.622 33.49ZM184.935 37C184.805 36.402 184.679 35.7347 184.558 34.998C184.437 34.2613 184.337 33.49 184.259 32.684C184.181 31.878 184.133 31.072 184.116 30.266H185.156C185.173 30.864 185.208 31.5053 185.26 32.19C185.312 32.866 185.377 33.5247 185.455 34.166C185.533 34.8073 185.62 35.3707 185.715 35.856C185.992 35.518 186.278 35.1193 186.573 34.66C186.868 34.2007 187.149 33.7153 187.418 33.204C187.695 32.6927 187.947 32.1857 188.172 31.683C188.397 31.1717 188.579 30.6993 188.718 30.266H189.732C189.55 30.8207 189.32 31.4013 189.043 32.008C188.766 32.606 188.454 33.204 188.107 33.802C187.76 34.3913 187.396 34.959 187.015 35.505C186.642 36.051 186.27 36.5493 185.897 37H184.935Z" fill="url(#paint0_linear_74_35)"/>
<defs>
<linearGradient id="paint0_linear_74_35" x1="-2" y1="-8" x2="132.281" y2="105.992" gradientUnits="userSpaceOnUse">
<stop stop-color="#00BE91"/>
<stop offset="1" stop-color="#5300AB"/>
</linearGradient>
</defs>
</svg>

<svg xmlns="http://www.w3.org/2000/svg" width="190" height="47" fill="none"><path fill="url(#a)" d="M8.307 37.576q-2.928 0-4.752-1.152a6.9 6.9 0 0 1-2.688-3.12Q.05 31.336.05 28.936q0-3.072 1.008-6.144a16.8 16.8 0 0 1 3.216-5.568q2.16-2.544 5.568-4.08t8.112-1.536q.672 0 1.728.096t2.112.336q1.104.24 1.728.672L19.73 28.12a48 48 0 0 0-.48 2.208 12 12 0 0 0-.192 2.208q0 .96.192 1.968t.576 2.256l-3.36.48q-.24-.576-.432-1.152-.144-.624-.336-1.44-1.056 1.008-2.976 1.968t-4.416.96m.48-3.072q2.16 0 3.936-.912 1.824-.96 2.928-2.16.048-.816.192-1.92.144-1.152.336-2.064l3.216-12.432q-.192-.048-1.008-.144-.768-.144-1.152-.144-3.024 0-5.472 1.152a12.9 12.9 0 0 0-4.224 3.024 13.7 13.7 0 0 0-2.736 4.416 13.9 13.9 0 0 0-.96 5.136q0 1.536.384 2.928.432 1.392 1.488 2.256 1.104.864 3.072.864m15.099 11.52q-1.2 0-2.304-.384-1.104-.336-1.584-.672L21.39 41.8q.384.432 1.2.672a5.6 5.6 0 0 0 1.776.288q3.072 0 5.04-1.2 2.016-1.152 3.936-3.984-1.92-6.048-3.36-12.576-1.44-6.576-1.68-12.864h3.84q.096 2.928.624 6.672.528 3.696 1.344 7.632a189 189 0 0 0 1.824 7.584 57 57 0 0 0 3.6-6.576 96 96 0 0 0 2.832-6.48q1.2-3.072 1.92-5.424.768-2.352.96-3.408h3.936q-.288 1.248-1.152 3.792-.816 2.544-2.16 5.856a95 95 0 0 1-3.12 6.768 56 56 0 0 1-3.84 6.624 76 76 0 0 1-3.12 4.32q-1.536 2.016-3.264 3.456a11.7 11.7 0 0 1-3.792 2.256q-2.112.816-4.848.816M46.857 37l5.856-24.288a18.4 18.4 0 0 1 3.072-.864q1.536-.336 2.832-.336 1.536 0 2.736.48 1.2.432 1.824 1.344 1.392-.96 2.64-1.392a7.6 7.6 0 0 1 2.496-.432q1.92 0 3.264 1.248 1.392 1.248 1.392 3.648 0 .576-.144 1.248-.096.672-.288 1.44L68.265 37h-3.6l4.272-17.904q.096-.432.144-.816a7 7 0 0 0 .048-.768q0-1.296-.624-1.968-.576-.72-1.536-.72-.624 0-1.392.336t-1.584 1.152q0 1.296-.336 2.784L61.69 27.4h-3.648l1.968-8.256q.192-.624.24-1.104.096-.528.096-.96 0-1.104-.576-1.68-.528-.576-1.68-.576-.48 0-1.104.144-.576.144-1.344.384L50.457 37zm36.364.624q-3.312 0-5.52-1.296-2.208-1.344-3.312-3.408t-1.104-4.272q0-3.456 1.008-6.528 1.056-3.12 3.024-5.472a14.4 14.4 0 0 1 4.8-3.744q2.832-1.344 6.336-1.344 2.88 0 4.56.864 1.728.864 2.448 2.256.72 1.344.72 2.88 0 2.832-1.2 4.608-1.152 1.776-3.168 2.736T87.3 26.296t-5.184.576q-2.688.096-5.184.192-.288 2.544.672 4.128 1.008 1.584 2.832 2.352 1.872.72 4.128.72a16 16 0 0 0 3.216-.336 30 30 0 0 0 2.928-.72q1.248-.432 1.584-.72l.384 3.36q-.912.48-3.264 1.152-2.352.624-6.192.624M77.605 24.04a143 143 0 0 0 5.904-.288q2.688-.24 4.656-.864 2.016-.624 3.12-1.824 1.104-1.248 1.104-3.36 0-.528-.336-1.2t-1.248-1.2-2.736-.528q-2.688 0-4.8 1.392a12.8 12.8 0 0 0-3.552 3.504q-1.44 2.112-2.112 4.368M99.088 37l5.664-23.664q3.072-.96 5.904-1.344a38 38 0 0 1 5.712-.432q1.296 0 2.352.096 1.104.096 3.12.528L120.4 15.4q-1.2-.288-2.016-.432a9 9 0 0 0-1.536-.144 24 24 0 0 0-1.68-.048q-1.728 0-3.552.192a26 26 0 0 0-3.696.672L102.832 37zm37.995 0q-2.688 0-4.224-.912t-2.16-2.448-.624-3.36q0-1.2.192-2.4.24-1.248.528-2.496l2.448-10.032h-7.248l.72-3.216h10.992l-3.12 13.44a43 43 0 0 0-.576 2.4 13 13 0 0 0-.192 2.16q0 1.536.816 2.64.864 1.104 3.264 1.104.912 0 1.68-.144t1.248-.192l-.384 3.216q.096-.096-.672.096-.72.144-2.688.144m-.816-29.904q-1.344 0-2.208-.816t-.864-2.16q0-1.824 1.152-2.832T136.843.28q1.296 0 2.16.816.912.768.912 2.256 0 1.68-1.2 2.736-1.152 1.008-2.448 1.008m21.484 30.528q-3.552 0-6.048-1.152t-3.792-3.264-1.296-4.896q0-3.216 1.056-6.192a16.7 16.7 0 0 1 3.12-5.424q2.112-2.4 5.232-3.792t7.2-1.392q1.968 0 3.648.24t3.12.912l-1.392 3.264q-.912-.48-2.208-.864-1.248-.432-3.648-.432-2.928 0-5.232 1.152a12.4 12.4 0 0 0-3.936 3.072 13.7 13.7 0 0 0-2.4 4.272 14 14 0 0 0-.816 4.704q0 1.68.672 3.216.672 1.488 2.4 2.4t4.848.912q2.448 0 4.56-.624 2.112-.672 2.832-1.2l.288 3.312q-.576.336-1.824.768-1.2.432-2.88.72a20 20 0 0 1-3.504.288m14.546-.468q-.792 0-1.3-.299a1.9 1.9 0 0 1-.728-.832 3 3 0 0 1-.234-1.209q0-.844.286-1.677a4.7 4.7 0 0 1 .858-1.508q.585-.69 1.482-1.105.91-.416 2.132-.416.156 0 .325.013h.312l.741-3.029 1.066-.182-1.872 7.683q-.078.325-.13.598a3.3 3.3 0 0 0-.052.598q0 .26.052.533.053.273.156.611l-.91.13a3 3 0 0 1-.117-.299 12 12 0 0 1-.091-.403q-.285.273-.767.533-.48.26-1.209.26m.104-.832q.586 0 1.066-.247.495-.26.793-.585a8 8 0 0 1 .052-.52 7 7 0 0 1 .091-.559l.871-3.367a3 3 0 0 0-.273-.039 2 2 0 0 0-.325-.039q-.806 0-1.469.312-.663.3-1.144.819a3.8 3.8 0 0 0-.728 1.196 4 4 0 0 0-.247 1.391q0 .416.104.793.105.377.39.611t.819.234m6.742.845q-.898 0-1.495-.351a2.415 2.415 0 0 1-1.196-2.08q0-.936.273-1.768a4.5 4.5 0 0 1 .819-1.482 3.9 3.9 0 0 1 1.3-1.014 3.95 3.95 0 0 1 1.716-.364q.78 0 1.235.234.468.234.663.611.195.364.195.78 0 .766-.325 1.248-.312.48-.858.741a4.7 4.7 0 0 1-1.222.377q-.677.117-1.404.156l-1.404.052q-.078.69.182 1.118.273.429.767.637.507.195 1.118.195.429 0 .871-.091.454-.09.793-.195.337-.117.429-.195l.104.91q-.248.13-.884.312-.638.17-1.677.169m-1.521-3.679q.87-.026 1.599-.078a6 6 0 0 0 1.261-.234q.546-.169.845-.494.299-.338.299-.91a.75.75 0 0 0-.091-.325.82.82 0 0 0-.338-.325q-.248-.143-.741-.143-.729 0-1.3.377a3.5 3.5 0 0 0-.962.949q-.39.572-.572 1.183m7.313 3.51a40 40 0 0 1-.377-2.002 35 35 0 0 1-.299-2.314 32 32 0 0 1-.143-2.418h1.04q.026.897.104 1.924.078 1.014.195 1.976t.26 1.69q.415-.507.858-1.196.442-.69.845-1.456.416-.767.754-1.521.338-.767.546-1.417h1.014a17 17 0 0 1-.689 1.742 22 22 0 0 1-.936 1.794q-.52.885-1.092 1.703A20 20 0 0 1 185.897 37z"/><defs><linearGradient id="a" x1="-2" x2="132.281" y1="-8" y2="105.992" gradientUnits="userSpaceOnUse"><stop stop-color="#00BE91"/><stop offset="1" stop-color="#5300AB"/></linearGradient></defs></svg>
